X:30
T:THE BIRKS OF INVERMAY/ Loudon's Bonnie Woods # 4      2X
M:4/4
L:1/8
Q:132
R:STRATHSPEY
B:Kerr's Merry Melodies Bk 1 (c1880)
Z:gel Gatherer
K:G
|:d2 |\
"G" G2 G>G     B<d d2 | "C" c>AB>G "D" A>G F<D | "G" G2 G>G      B<d d2| "C" e<g "D" f<a "G" g2 d2   |!
"G" G2 G>G     B<d d2 | "C" c>A "A/C#" B>G "D" A>G F<D | "Em" G2 G>G   "Bm"   B<d d2| "C" e<g "D" f<a "G" g2    |!
d2 |\
"G" g>ab>g "D" a>g f<d | "C"  e>fg>e "G" d<B B<G | "G" g>ab>g "D"  a>gf<d | "Am" e<g "D" f<a "G" g2 g2  |!
"G" g>ab>g "D" a>g f>d | "C"  e>fg>e "G" d<B B<A | "G" G2 G>G "Em" B<d d2 | "Am" e<g "D" f<a "G" g2  ||
